src/icons/buybox.icon.svg

<svg viewBox="0 0 47 36" fill="none" xmlns="http://www.w3.org/2000/svg">
<path d="M1.72902 26.147L1.29008 10.1883L17.3555 17.852L17.0044 33.9911L1.72902 26.147Z" fill="#5BC6C6" fill-opacity="0.2" stroke="black"/>
<path d="M33.4354 8.12361L18.3166 0.256036L18.3103 0.252809C17.6371 -0.0914067 16.8372 -0.0837147 16.1703 0.273412L9.68592 3.80787C9.63323 3.83081 9.58261 3.85862 9.53412 3.89062L1.76359 8.12615C0.984145 8.54529 0.5 9.36655 0.5 10.2704V24.8907C0.5 25.7946 0.984145 26.6158 1.76359 27.0349L16.1639 34.8843L16.1704 34.8878C16.5105 35.0699 16.8853 35.1612 17.2602 35.1612C17.6203 35.1612 17.9805 35.077 18.3103 34.9083L33.4354 27.0375C34.2389 26.6248 34.7379 25.7957 34.7379 24.8728V10.2883C34.7379 9.36538 34.2389 8.53623 33.4354 8.12361ZM17.0998 2.0984C17.1981 2.04661 17.3154 2.04558 17.4145 2.09551L31.5663 9.45988L26.0585 12.276L12.223 4.75666L17.0998 2.0984ZM16.243 32.5957L2.70072 25.214L2.69423 25.2105C2.57781 25.148 2.50539 25.0256 2.50539 24.8907V11.1998L16.243 18.5569V32.5957ZM17.2563 16.7767L3.59425 9.46008L10.0823 5.92364L23.8494 13.4056L17.2563 16.7767ZM32.7324 24.8727C32.7324 25.0105 32.6578 25.1343 32.5377 25.1957L18.2485 32.6316V18.5701L24.8276 15.2061V18.7331C24.8276 19.3018 25.2766 19.7629 25.8304 19.7629C26.3841 19.7629 26.8331 19.3018 26.8331 18.7331V14.1807L32.7324 11.1643V24.8727Z" fill="#333333"/>
<rect x="25.3629" y="14.2325" width="21.1946" height="21.7674" rx="10.5973" fill="white"/>
<path d="M28.1889 25.1163C28.1889 20.7083 31.6683 17.1349 35.9603 17.1349C40.2523 17.1349 43.7316 20.7083 43.7316 25.1163C43.7316 29.5243 40.2523 33.0977 35.9603 33.0977C31.6683 33.0977 28.1889 29.5243 28.1889 25.1163Z" fill="#DEF4F4"/>
<path fill-rule="evenodd" clip-rule="evenodd" d="M27.1998 25.1162C27.1998 20.1472 31.1219 16.119 35.9602 16.119C40.7985 16.119 44.7206 20.1472 44.7206 25.1162C44.7206 30.0853 40.7985 34.1134 35.9602 34.1134C31.1219 34.1134 27.1998 30.0853 27.1998 25.1162ZM35.9602 18.1506C32.2145 18.1506 29.1779 21.2692 29.1779 25.1162C29.1779 28.9632 32.2145 32.0818 35.9602 32.0818C39.7059 32.0818 42.7425 28.9632 42.7425 25.1162C42.7425 21.2692 39.7059 18.1506 35.9602 18.1506Z" fill="#333333"/>
<path fill-rule="evenodd" clip-rule="evenodd" d="M37.2012 19.8731C37.2012 19.4503 36.8675 19.1076 36.4558 19.1076C36.0441 19.1076 35.7104 19.4503 35.7104 19.8731V20.9786H35.317C34.6965 20.9786 34.1014 21.2318 33.6626 21.6824C33.2239 22.133 32.9774 22.7442 32.9774 23.3815C32.9774 24.0188 33.2239 24.63 33.6626 25.0806C34.1014 25.5312 34.6965 25.7844 35.317 25.7844H35.7104V27.5281H33.7227C33.3111 27.5281 32.9774 27.8708 32.9774 28.2936C32.9774 28.7164 33.3111 29.0591 33.7227 29.0591H35.7104V30.1651C35.7104 30.5879 36.0441 30.9307 36.4558 30.9307C36.8675 30.9307 37.2012 30.5879 37.2012 30.1651V29.0591H37.5946C38.2151 29.0591 38.8102 28.806 39.2489 28.3553C39.6877 27.9047 39.9342 27.2935 39.9342 26.6562C39.9342 26.0189 39.6877 25.4078 39.2489 24.9571C38.8102 24.5065 38.2151 24.2533 37.5946 24.2533H37.2012V22.5096H38.7333C39.145 22.5096 39.4787 22.1669 39.4787 21.7441C39.4787 21.3213 39.145 20.9786 38.7333 20.9786H37.2012V19.8731ZM35.7104 22.5096H35.317C35.0919 22.5096 34.8759 22.6015 34.7167 22.765C34.5575 22.9285 34.4681 23.1503 34.4681 23.3815C34.4681 23.6127 34.5575 23.8345 34.7167 23.998C34.8759 24.1615 35.0919 24.2533 35.317 24.2533H35.7104V22.5096ZM37.2012 25.7844V27.5281H37.5946C37.8197 27.5281 38.0356 27.4362 38.1948 27.2727C38.354 27.1092 38.4435 26.8875 38.4435 26.6562C38.4435 26.425 38.354 26.2032 38.1948 26.0397C38.0356 25.8762 37.8197 25.7844 37.5946 25.7844H37.2012Z" fill="#333333"/>
</svg>

<svg viewBox="0 0 47 36" fill="none" xmlns="http://www.w3.org/2000/svg"><path d="M1.729 26.147 1.29 10.188l16.066 7.664-.352 16.14L1.73 26.146Z" fill="#5BC6C6" fill-opacity=".2" stroke="#000"/><path d="M33.435 8.124 18.317.256 18.31.253a2.308 2.308 0 0 0-2.14.02L9.686 3.808c-.053.023-.103.05-.152.083l-7.77 4.235A2.422 2.422 0 0 0 .5 10.27v14.62c0 .905.484 1.726 1.264 2.145l14.4 7.85.006.003a2.308 2.308 0 0 0 2.14.02l15.125-7.87a2.414 2.414 0 0 0 1.303-2.165V10.288c0-.923-.5-1.752-1.303-2.164ZM17.1 2.098a.344.344 0 0 1 .314-.002L31.566 9.46l-5.508 2.816-13.835-7.52L17.1 2.099Zm-.857 30.498L2.701 25.214l-.007-.003a.361.361 0 0 1-.189-.32V11.2l13.738 7.357v14.039Zm1.013-15.82L3.594 9.46l6.488-3.536 13.767 7.482-6.593 3.37Zm15.476 8.097a.36.36 0 0 1-.194.323l-14.29 7.436V18.57l6.58-3.364v3.527c0 .569.449 1.03 1.002 1.03.554 0 1.003-.461 1.003-1.03v-4.552l5.9-3.017v13.709Z" fill="#333"/><rect x="25.363" y="14.232" width="21.195" height="21.767" rx="10.597" fill="#fff"/><path d="M28.189 25.116c0-4.408 3.48-7.981 7.771-7.981 4.292 0 7.772 3.573 7.772 7.981 0 4.408-3.48 7.982-7.772 7.982s-7.771-3.574-7.771-7.982Z" fill="#DEF4F4"/><path fill-rule="evenodd" clip-rule="evenodd" d="M27.2 25.116c0-4.969 3.922-8.997 8.76-8.997 4.838 0 8.76 4.028 8.76 8.997 0 4.97-3.922 8.997-8.76 8.997-4.838 0-8.76-4.028-8.76-8.997Zm8.76-6.965c-3.745 0-6.782 3.118-6.782 6.965s3.037 6.966 6.782 6.966c3.746 0 6.782-3.119 6.782-6.966s-3.036-6.965-6.782-6.965Z" fill="#333"/><path fill-rule="evenodd" clip-rule="evenodd" d="M37.201 19.873a.756.756 0 0 0-.745-.765.756.756 0 0 0-.746.765v1.106h-.393a2.31 2.31 0 0 0-1.654.703 2.436 2.436 0 0 0-.686 1.7c0 .637.247 1.248.686 1.699a2.31 2.31 0 0 0 1.654.703h.393v1.744h-1.987a.756.756 0 0 0-.746.766c0 .422.334.765.746.765h1.987v1.106c0 .423.334.766.746.766a.756.756 0 0 0 .745-.766V29.06h.394c.62 0 1.215-.253 1.654-.704.439-.45.685-1.061.685-1.699 0-.637-.246-1.248-.685-1.699a2.309 2.309 0 0 0-1.654-.704H37.2V22.51h1.532a.756.756 0 0 0 .746-.766.756.756 0 0 0-.746-.765h-1.532v-1.106Zm-1.49 2.637h-.394a.838.838 0 0 0-.6.255.884.884 0 0 0-.249.616c0 .232.09.453.249.617.159.163.375.255.6.255h.393V22.51Zm1.49 3.274v1.744h.394a.838.838 0 0 0 .6-.255.884.884 0 0 0 0-1.233.838.838 0 0 0-.6-.256H37.2Z" fill="#333"/></svg>
